ui/icon/svg/bar-chart-sharp.svg

<svg viewBox="0 0 512 512" xmlns="http://www.w3.org/2000/svg"><path d="m496 496h-480v-480h32v448h448z"/><path d="m192 432h-112v-224h112zm144 0h-112v-272h112zm143.64 0h-112v-336h112z"/></svg>

<svg xmlns="http://www.w3.org/2000/svg" class="ionicon" viewBox="0 0 512 512"><title>Bar Chart</title><path d="M496 496H16V16h32v448h448v32z"/><path d="M192 432H80V208h112zM336 432H224V160h112zM479.64 432h-112V96h112z"/></svg>
